X: 5119
T: Bridget Cruise
R: waltz
M: 3/4
K: Dmajor
DE|FA Bd/B/ AF|E2 D2 (3DEF|E2 D2 D2|D4 DE|
FA Bd/B/ AF|E2 D2 EF|A2 F2 AB|A4 AB|
=cB =cd ed|BA Bd ed/B/|A2 F2 ED|E4 DE|
FA Bd/B/ AF|E2 D2 (3DEF|E2 D2 D2|D4||

